X:1
T:128 - A RedenÃ§Ã£o
T:Letra: Fanny Jane Crosby (1820-1915)
T:Adapt.: William Edwin Entzminger (1859-1930)
T:MÃºsica: Victor H. Benke
L:1/8
M:3/4
Q:1/4=90
K:Bb
V:1
d BG | "Bb"F3 G B3/2G/ | "F7"A3 c cG |B3 A G3/2A/ | "Bb"F2z d BG | F3 =E Fd | "F"c3 c "Bb"dB | "C"A3 G "C7"B3/2A/ | "F"F2z || F Bc | "Bb"d3 B "Eb"GB | "Bb"F3 B cd | "Eb"e3 G "C7"c3/2B/ | "F"A2z c de | "Bb"f3 d "G7"e3/2d/ | G3 c "Cm"dc | "Bb/F"F3 B "F7"Bc | "Bb"HB3 |]
w: 1.~E-ter-no Deus, que-re-mos nÃ³s Lou-vo-res a Je-sus can-tar; O seu a-mor, a su-a cruz, A-ju-da-nos a ce-le-brar.     A gra-Ã§a vin-da doal-to cÃ©u,    Queo Sal-va-dor nos con-ce-deu,    Des-can-so traz ao co-ra-Ã§Ã£o,           Vi-gor e paz e sal-va-Ã§Ã£o.  
w: 2.~Da vi-da Ã©s o Cri-a-dor, De Ti pro-vÃ©m ins-pi-ra-Ã§Ã£o; A-bra-sa-nos com mais ar-dor Pra di-vul-gar a re-den-Ã§Ã£o.  
w: 3.~De Cris-toa cau-sa de-fen-der, O rei-no seu a-nun-ci-ar, A fa-ma dE-le pro-mo-ver- Eis nos-sa glÃ³-ria sin-gu-lar!
W: 
W:
W: 1. Eterno Deus, queremos nÃ³s
W: Louvores a Jesus cantar;
W: O seu amor, a sua cruz,
W: Ajuda-nos a celebrar.
W: 
W:    (Estribilho)
W:    A graÃ§a vinda do alto cÃ©u,
W:    Que o Salvador nos concedeu,
W:    Descanso traz ao coraÃ§Ã£o,       
W:    Vigor e paz e salvaÃ§Ã£o.
W: 
W: 
W:
W: 2. Da vida Ã©s o Criador,
W: De Ti provÃ©m inspiraÃ§Ã£o;
W: Abrasa-nos com mais ardor
W: Pra divulgar a redenÃ§Ã£o.
W: 
W: 3. De Cristo a causa defender,
W: O reino seu anunciar,
W: A fama dEle promover-
W: Eis nossa glÃ³ria singular!
W:         
W: 

